static char * sisifo_xpm[] = {
/* width height num_colors chars_per_pixel */
"50 30 2 1",
/* colors */
". c #FFFFFF",
"# c #000000",
/* pixels */
"..................................#####...........",
".................................#########........",
"................................###########.......",
".........................###...#############......",
"........................#####..#############......",
".........................###...#############......",
"........................####################......",
".......................#####################.#####",
".......................##.......##################",
"......................###........#################",
"......................##...........###############",
"......................########.......#############",
"....................##......##.....################",
"...................##.......##.####################",
"..................##........#######################",
".................##.......#########################",
"................##......###########################",
"...............##...##############################",
"...............#..################################",
"...............###################################",
".............#####################################",
"..........########################################",
".......###########################################",
".....#############################################",
"..################################################",
"##################################################",
"##################################################",
"##################################################",
"##################################################",
"##################################################"
};